dist/img/social/iconmonstr-flickr-4.svg

<?xml version="1.0" encoding="iso-8859-1"?>
<!-- Generator: Adobe Illustrator 19.1.0, SVG Export Plug-In . SVG Version: 6.00 Build 0)  -->
<!DOCTYPE svg PUBLIC "-//W3C//DTD SVG 1.1//EN" "http://www.w3.org/Graphics/SVG/1.1/DTD/svg11.dtd">
<svg version="1.1" id="Layer_1" xmlns="http://www.w3.org/2000/svg" xmlns:xlink="http://www.w3.org/1999/xlink" x="0px" y="0px"
	 viewBox="-583 408.89 24 24" style="enable-background:new -583 408.89 24 24;" xml:space="preserve">
<path style="fill:#FFFFFF;" d="M-571,408.89c-6.627,0-12,5.373-12,12c0,6.627,5.373,12,12,12s12-5.373,12-12
	C-559,414.263-564.373,408.89-571,408.89z M-568.083,424.973c-1.145,0-2.177-0.472-2.919-1.229c-0.74,0.758-1.771,1.229-2.915,1.229
	c-2.255,0-4.083-1.828-4.083-4.083c0-2.255,1.828-4.083,4.083-4.083c1.144,0,2.175,0.472,2.915,1.229
	c0.742-0.758,1.774-1.229,2.919-1.229c2.255,0,4.083,1.828,4.083,4.083C-564,423.145-565.828,424.973-568.083,424.973z
	 M-565.167,420.89c0,1.608-1.308,2.917-2.916,2.917c-1.608,0-2.917-1.309-2.917-2.917c0-1.608,1.309-2.917,2.917-2.917
	C-566.475,417.973-565.167,419.282-565.167,420.89z"/>
</svg>

<?xml version="1.0" encoding="UTF-8" standalone="no"?>
<!DOCTYPE svg PUBLIC "-//W3C//DTD SVG 1.1//EN" "http://www.w3.org/Graphics/SVG/1.1/DTD/svg11.dtd">
<svg width="100%" height="100%" viewBox="0 0 512 512" version="1.1" xmlns="http://www.w3.org/2000/svg" xmlns:xlink="http://www.w3.org/1999/xlink" xml:space="preserve" style="fill-rule:evenodd;clip-rule:evenodd;stroke-linejoin:round;stroke-miterlimit:1.41421;">
    <g transform="matrix(17.1667,0,0,17.1667,10057.2,-6968.28)">
        <path d="M-571,408.89C-577.627,408.89 -583,414.263 -583,420.89C-583,427.517 -577.627,432.89 -571,432.89C-564.373,432.89 -559,427.517 -559,420.89C-559,414.263 -564.373,408.89 -571,408.89ZM-568.083,424.973C-569.228,424.973 -570.26,424.501 -571.002,423.744C-571.742,424.502 -572.773,424.973 -573.917,424.973C-576.172,424.973 -578,423.145 -578,420.89C-578,418.635 -576.172,416.807 -573.917,416.807C-572.773,416.807 -571.742,417.279 -571.002,418.036C-570.26,417.278 -569.228,416.807 -568.083,416.807C-565.828,416.807 -564,418.635 -564,420.89C-564,423.145 -565.828,424.973 -568.083,424.973ZM-565.167,420.89C-565.167,422.498 -566.475,423.807 -568.083,423.807C-569.691,423.807 -571,422.498 -571,420.89C-571,419.282 -569.691,417.973 -568.083,417.973C-566.475,417.973 -565.167,419.282 -565.167,420.89Z" style="fill:white;fill-rule:nonzero;"/>
    </g>
</svg>
